X:1
T:I will Give my Love an Apple
Z:H E D Hammond
B:A Selection of Collected Folk-Songs,  Novello
F:http://www.folkinfo.org/songs
M:3/4     %Meter
L:1/8     %
K:Am
EE |A2 A2 AB |c2 B2 A2 |(AG) E2 D2 | E4
w:I will give my love an ap-ple with-out_ e'er a core,
EF |G2 G2 AA |(E2D2) C2 |D2 c2 B2 | A4
w:I will give my love a house_ with-out e'er a door,
cd |e2 c2 ee |(ed) e2 e2 |(ed) A2 A2 | (F2E2)
w:I will give my love a pal_ ace where-in_ she may be_
 D2 |G2 G2 A2 |E2 D2 C2 |D2 c2 B2 | A4  |]
w:And she may un-lock it with-out a-ny key. 